icon/pk/internal-expansion.svg

<svg viewBox="0 0 48 48" fill="none" xmlns="http://www.w3.org/2000/svg" height="1em" width="1em">
  <path d="M8 42H40C41.1046 42 42 41.1046 42 40V8C42 6.89543 41.1046 6 40 6H8C6.89543 6 6 6.89543 6 8V40C6 41.1046 6.89543 42 8 42Z" stroke="black" stroke-width="4" stroke-linecap="round" stroke-linejoin="round"/>
  <path fill-rule="evenodd" clip-rule="evenodd" d="M42 8C42 6.89543 41.1046 6 40 6H28V20H42V8Z" fill="#2F88FF" stroke="black" stroke-width="4" stroke-linecap="round" stroke-linejoin="round"/>
  <path d="M13 35L23 25M23 25V32M23 25H16" stroke="black" stroke-width="4" stroke-linecap="round" stroke-linejoin="round"/>
</svg>

<svg width="48" height="48" fill="none" xmlns="http://www.w3.org/2000/svg"><path d="M8 42h32a2 2 0 0 0 2-2V8a2 2 0 0 0-2-2H8a2 2 0 0 0-2 2v32a2 2 0 0 0 2 2Z" stroke="#000" stroke-width="4" stroke-linecap="round" stroke-linejoin="round"/><path fill-rule="evenodd" clip-rule="evenodd" d="M42 8a2 2 0 0 0-2-2H28v14h14V8Z" fill="#2F88FF" stroke="#000" stroke-width="4" stroke-linecap="round" stroke-linejoin="round"/><path d="m13 35 10-10m0 0v7m0-7h-7" stroke="#000" stroke-width="4" stroke-linecap="round" stroke-linejoin="round"/></svg>
